svgs/sharp-solid/jug.svg

<svg xmlns="http://www.w3.org/2000/svg" viewBox="0 0 448 512"><!--! Font Awesome Pro 6.6.0 by @fontawesome - https://fontawesome.com License - https://fontawesome.com/license (Commercial License) Copyright 2024 Fonticons, Inc. --><path d="M160 0L288 0l32 0 0 64-32 0L160 64l-32 0 0-64 32 0zM359 151l-3.7 3.7L387 190.9 393 185c9.4-9.4 9.4-24.6 0-33.9s-24.6-9.4-33.9 0zm67.9 67.9L416 229.8 416 512 32 512l0-288L144 96l160 0 19.7 22.5 1.4-1.4c28.1-28.1 73.7-28.1 101.8 0s28.1 73.7 0 101.8zM352 288L96 288l0 128 256 0 0-128z"/></svg>

<svg xmlns="http://www.w3.org/2000/svg" viewBox="0 0 448 512"><!--! Font Awesome Pro 6.4.0 by @fontawesome - https://fontawesome.com License - https://fontawesome.com/license (Commercial License) Copyright 2023 Fonticons, Inc. --><path d="M160 0H288h32V64H288 160 128V0h32zM359 151l-3.7 3.7L387 190.9 393 185c9.4-9.4 9.4-24.6 0-33.9s-24.6-9.4-33.9 0zm67.9 67.9L416 229.8V512H32V224L144 96H304l19.7 22.5 1.4-1.4c28.1-28.1 73.7-28.1 101.8 0s28.1 73.7 0 101.8zM352 288H96V416H352V288z"/></svg>
